public/logos/spinlister.svg

<svg fill="none" height="51" viewBox="0 0 178 51" width="178" xmlns="http://www.w3.org/2000/svg"><path clip-rule="evenodd" d="m166.63 38.3606c-5.056 0-5.743-4.782-4.891-7.632.802-2.682 4.369-9.694 5.919-14.203.58-1.685.541-2.534-.831-2.765-1.308-.22-2.426.074-3.066.317-2.079 8.294-8.874 24.283-19.501 24.283-3.926 0-7.132-2.458-7.803-7.299-1.968 2.86-5.689 7.299-9.835 7.299-5.056 0-4.526-4.782-3.674-7.632.403-1.346 1.267-4 2.313-7.152-1.92 2.445-4.536 5.173-7.338 7.322.088 4.072-1.302 6.061-3.323 6.969-4.155 1.869-7.771-1.509-7.753-4.068 4.023-1.362 7.016-3.211 7.016-3.211.146-3.108-1.334-6.824-2.548-10.334-2.568 7.153-9.021 18.106-15.919 18.106-3.622 0-4.377-2.455-4.2-4.895-2.247 2.437-5.2101 4.895-8.0241 4.895-3.618 0-4.375-2.449-4.201-4.886-2.135 2.434-4.9839 4.886-7.7949 4.886-5.056 0-5.318-4.393-4.341-7.632 1.207-3.996 4.134-8.194 5.684-12.702.58-1.686-.2361-2.765-1.6281-2.765-1.938 0-4.7439 2.114-6.9749 7.737 0 0-.0021-.006-.0041-.016l-5.188 15.378h-4.771l1.157-3.429c-1.909 1.867-4.175 3.429-6.418 3.429-5.056 0-4.5248-4.782-3.6738-7.632.573-1.916 1.6688-5.219 2.7988-8.555-3.181 3.739-6.7509 6.698-9.5339 8.72-.253.402-.5121.805-.7881 1.207-2.588 3.774-4.9248 6.104-6.9038 6.26-2.243.176-3.207-2.385-2.573-4.611 4.684-2.528 6.6218-4.385 6.6218-4.385 3.511-5.239 4.4311-13.473 1.9011-14.103-2.414-.602-4.847 2.918-6.522 7.737 0 0-.0009-.004-.0009-.006l-9.4031 27.55-4.9251.454 13.4981-39.55h4.532l-.5791 1.924c1.55-1.63 3.529-2.781 5.945-2.313 3.649.706 4.7869 6.731 2.1079 13.974 3.533-2.9 7.3242-7.149 10.3172-13.585h4.771l-6.5061 19.321s-1.203 3.372.884 3.372c3.893 0 7.8029-9.155 7.8359-9.233l4.5452-13.46h4.375l-.7261 2.669c1.831-1.714 4.0342-3.058 6.7452-3.058 3.598 0 5.1877 2.861 4.1337 6.337-1.49 4.917-9.9908 16.745-4.4248 16.745 4.108 0 8.2168-9.236 8.2168-9.236l.0061.02c2.891-8.749 7.742-22.95 7.742-22.95h4.771l-9.624 28.794s-1.203 3.372.884 3.372c3.91 0 8.449-9.236 8.449-9.236l.007.018c2.01-6.019 4.6189-13.475 4.6189-13.475h4.7712l-6.506 19.321s-1.203 3.372.884 3.372c1.942 0 4.236-2.182 6.349-5.132 2.958-4.126 5.562-9.756 6.354-13.012-.168-.817-.267-1.598-.264-2.33.02-4.745 5.088-4.283 5.423-2.594-1.899 3.836 1.05 9.914 2.142 15.305.113.562.207 1.095.285 1.607 4.995-4.073 9.254-10.05 10.914-14.26l.001-.003-6.499.004.657-2.278h6.611c1.613-4.761 2.883-8.48 2.883-8.48l5.11-.993-3.166 9.473h5.308l-.858 2.268-5.209.003-5.699 17.05s-1.203 3.372.884 3.372c2.699 0 6.354-5.334 7.952-7.894 1.073-7.381 6.063-15.188 12.48-15.188 3.873 0 5.513 2.252 5.304 5.615-.461 7.414-7.563 14.829-12.841 11.597-.013.28-.021.559-.021.839 0 3.366 1.94 5.031 4.884 5.031 6.262 0 14.027-12.436 13.188-25.85.646-1.189 4.903-1.14 4.903 1.729 0 .401-.054.943-.159 1.594 1.06-.212 2.719-.436 4.501-.263 3.581.347 4.563 2.918 3.337 6.336-1.192 3.322-4.57 9.547-5.243 13.082-.266 1.393.364 3.372 2.451 3.372 3.532 0 6.196-3.792 7.516-7.239 1.363 0 1.282 1.266.972 2.167-1.133 3.291-5.605 9.293-11.184 9.293zm-16.953-24.369c-2.446-.873-6.79 5.026-7.93 11.844 5.709 2.212 10.406-10.96 7.93-11.844zm-48.986-4.764c-1.3331-.558-1.739-2.602-.91-4.566.83-1.964 2.583-3.104 3.915-2.547 1.333.558 1.741 2.602.911 4.566-.83 1.965-2.583 3.105-3.916 2.547zm-47.1151 0c-1.333-.558-1.7399-2.602-.9099-4.566.829-1.964 2.5831-3.104 3.9151-2.547 1.332.558 1.7399 2.602.9099 4.566-.83 1.965-2.5831 3.105-3.9151 2.547zm-34.393 2.838c.348-.346 1.4851-2.68 1.6401-4.1.299-2.725-1.0439-3.938-2.5339-4.011-3.127-.154-5.1031 2.902-5.1031 6.98 0 7.685 7.118 8.753 7.024 17.651-.066 6.266-4.9692 11.014-11.88017 10.668-5.03-.251-8.32983-3.479-8.32983-8.359 0-5.632 5.41806-6.627 6.56006-5.49-1.491 1.903-2.93616 8.965 1.71484 9.966 3.288.708 7.463-2.392 6.303-8.433-1.388-7.233-6.84206-9.679-6.84206-17.081 0-6.951 6.62606-10.907 13.03706-9.612997 2.679.542 4.9762 2.391997 5.0062 5.985997.047 5.514-4.8072 7.03-6.5962 5.836z" fill="#fff" fill-rule="evenodd"/></svg>

<svg width="178" height="51" viewBox="0 0 178 51" fill="none" xmlns="http://www.w3.org/2000/svg">
<path fill-rule="evenodd" clip-rule="evenodd" d="M166.63 38.3606C161.574 38.3606 160.887 33.5786 161.739 30.7286C162.541 28.0466 166.108 21.0346 167.658 16.5256C168.238 14.8406 168.199 13.9916 166.827 13.7606C165.519 13.5406 164.401 13.8346 163.761 14.0776C161.682 22.3716 154.887 38.3606 144.26 38.3606C140.334 38.3606 137.128 35.9026 136.457 31.0616C134.489 33.9216 130.768 38.3606 126.622 38.3606C121.566 38.3606 122.096 33.5786 122.948 30.7286C123.351 29.3826 124.215 26.7286 125.261 23.5766C123.341 26.0216 120.725 28.7496 117.923 30.8986C118.011 34.9706 116.621 36.9596 114.6 37.8676C110.445 39.7366 106.829 36.3586 106.847 33.7996C110.87 32.4376 113.863 30.5886 113.863 30.5886C114.009 27.4806 112.529 23.7646 111.315 20.2546C108.747 27.4076 102.294 38.3606 95.396 38.3606C91.774 38.3606 91.019 35.9056 91.196 33.4656C88.949 35.9026 85.9859 38.3606 83.1719 38.3606C79.5539 38.3606 78.7969 35.9116 78.9709 33.4746C76.8359 35.9086 73.987 38.3606 71.176 38.3606C66.12 38.3606 65.858 33.9676 66.835 30.7286C68.042 26.7326 70.969 22.5346 72.519 18.0266C73.099 16.3406 72.2829 15.2616 70.8909 15.2616C68.9529 15.2616 66.147 17.3756 63.916 22.9986C63.916 22.9986 63.9139 22.9926 63.9119 22.9826L58.7239 38.3606H53.9529L55.1099 34.9316C53.2009 36.7986 50.9349 38.3606 48.6919 38.3606C43.6359 38.3606 44.1671 33.5786 45.0181 30.7286C45.5911 28.8126 46.6869 25.5096 47.8169 22.1736C44.6359 25.9126 41.066 28.8716 38.283 30.8936C38.03 31.2956 37.7709 31.6986 37.4949 32.1006C34.9069 35.8746 32.5701 38.2046 30.5911 38.3606C28.3481 38.5366 27.3841 35.9756 28.0181 33.7496C32.7021 31.2216 34.6399 29.3646 34.6399 29.3646C38.1509 24.1256 39.071 15.8916 36.541 15.2616C34.127 14.6596 31.694 18.1796 30.019 22.9986C30.019 22.9986 30.0181 22.9946 30.0181 22.9926L20.615 50.5426L15.6899 50.9966L29.188 11.4466H33.72L33.1409 13.3706C34.6909 11.7406 36.6699 10.5896 39.0859 11.0576C42.7349 11.7636 43.8728 17.7886 41.1938 25.0316C44.7268 22.1316 48.518 17.8826 51.511 11.4466H56.282L49.7759 30.7676C49.7759 30.7676 48.5729 34.1396 50.6599 34.1396C54.5529 34.1396 58.4628 24.9846 58.4958 24.9066L63.041 11.4466H67.416L66.6899 14.1156C68.5209 12.4016 70.7241 11.0576 73.4351 11.0576C77.0331 11.0576 78.6228 13.9186 77.5688 17.3946C76.0788 22.3116 67.578 34.1396 73.144 34.1396C77.252 34.1396 81.3608 24.9036 81.3608 24.9036L81.3669 24.9236C84.2579 16.1746 89.1089 1.9736 89.1089 1.9736H93.8799L84.2559 30.7676C84.2559 30.7676 83.0529 34.1396 85.1399 34.1396C89.0499 34.1396 93.5889 24.9036 93.5889 24.9036L93.5959 24.9216C95.6059 18.9026 98.2148 11.4466 98.2148 11.4466H102.986L96.48 30.7676C96.48 30.7676 95.277 34.1396 97.364 34.1396C99.306 34.1396 101.6 31.9576 103.713 29.0076C106.671 24.8816 109.275 19.2516 110.067 15.9956C109.899 15.1786 109.8 14.3976 109.803 13.6656C109.823 8.9206 114.891 9.3826 115.226 11.0716C113.327 14.9076 116.276 20.9856 117.368 26.3766C117.481 26.9386 117.575 27.4716 117.653 27.9836C122.648 23.9106 126.907 17.9336 128.567 13.7236L128.568 13.7206L122.069 13.7246L122.726 11.4466H129.337C130.95 6.6856 132.22 2.9666 132.22 2.9666L137.33 1.9736L134.164 11.4466H139.472L138.614 13.7146L133.405 13.7176L127.706 30.7676C127.706 30.7676 126.503 34.1396 128.59 34.1396C131.289 34.1396 134.944 28.8056 136.542 26.2456C137.615 18.8646 142.605 11.0576 149.022 11.0576C152.895 11.0576 154.535 13.3096 154.326 16.6726C153.865 24.0866 146.763 31.5016 141.485 28.2696C141.472 28.5496 141.464 28.8286 141.464 29.1086C141.464 32.4746 143.404 34.1396 146.348 34.1396C152.61 34.1396 160.375 21.7036 159.536 8.2896C160.182 7.1006 164.439 7.1496 164.439 10.0186C164.439 10.4196 164.385 10.9616 164.28 11.6126C165.34 11.4006 166.999 11.1766 168.781 11.3496C172.362 11.6966 173.344 14.2676 172.118 17.6856C170.926 21.0076 167.548 27.2326 166.875 30.7676C166.609 32.1606 167.239 34.1396 169.326 34.1396C172.858 34.1396 175.522 30.3476 176.842 26.9006C178.205 26.9006 178.124 28.1666 177.814 29.0676C176.681 32.3586 172.209 38.3606 166.63 38.3606ZM149.677 13.9916C147.231 13.1186 142.887 19.0176 141.747 25.8356C147.456 28.0476 152.153 14.8756 149.677 13.9916ZM100.691 9.2276C99.3579 8.6696 98.952 6.6256 99.781 4.6616C100.611 2.6976 102.364 1.5576 103.696 2.1146C105.029 2.6726 105.437 4.7166 104.607 6.6806C103.777 8.6456 102.024 9.7856 100.691 9.2276ZM53.5759 9.2276C52.2429 8.6696 51.836 6.6256 52.666 4.6616C53.495 2.6976 55.2491 1.5576 56.5811 2.1146C57.9131 2.6726 58.321 4.7166 57.491 6.6806C56.661 8.6456 54.9079 9.7856 53.5759 9.2276ZM19.1829 12.0656C19.5309 11.7196 20.668 9.3856 20.823 7.9656C21.122 5.2406 19.7791 4.0276 18.2891 3.9546C15.1621 3.8006 13.186 6.8566 13.186 10.9346C13.186 18.6196 20.304 19.6876 20.21 28.5856C20.144 34.8516 15.2408 39.5996 8.32983 39.2536C3.29983 39.0026 0 35.7746 0 30.8946C0 25.2626 5.41806 24.2676 6.56006 25.4046C5.06906 27.3076 3.6239 34.3696 8.2749 35.3706C11.5629 36.0786 15.7379 32.9786 14.5779 26.9376C13.1899 19.7046 7.73584 17.2586 7.73584 9.8566C7.73584 2.9056 14.3619 -1.0504 20.7729 0.243603C23.4519 0.785603 25.7491 2.6356 25.7791 6.2296C25.8261 11.7436 20.9719 13.2596 19.1829 12.0656Z" fill="white"/>
</svg>
